public/assets/images/home/home-team-card-empty.svg

<svg width="175" height="170" viewBox="0 0 175 170" fill="none" xmlns="http://www.w3.org/2000/svg">
<rect x="0.730713" y="0.195312" width="173.802" height="156.439" fill="#68E8AA"/>
<g clip-path="url(#clip0)">
<path d="M132.599 58.7369C127.193 52.2787 122.823 44.7825 119.028 34.2878C115.118 22.9858 102.007 27.5988 102.007 27.5988C102.007 27.5988 91.197 13.6444 74.8664 18.4881C58.5357 23.3318 52.7855 34.9797 52.5555 48.9342C52.2105 62.7733 41.4 64.9645 33.0047 80.9949C18.1691 109.25 43.1251 133.122 88.4369 126.549L88.5519 126.087C93.0371 127.471 98.4423 128.048 105.113 127.587C159.395 124.358 154.104 84.224 132.599 58.7369Z" fill="#1A1A1A"/>
<path d="M54.8555 127.702C54.8555 127.702 24.9543 142.81 24.9543 168.758H86.1367H91.657H151.689C151.689 142.81 120.638 127.702 120.638 127.702" fill="#1A1A1A"/>
<path d="M54.8555 127.702C54.8555 127.702 24.9543 142.81 24.9543 168.758H86.1367H91.657H151.689C151.689 142.81 120.638 127.702 120.638 127.702" stroke="#1A1A1A" stroke-width="1.1491" stroke-miterlimit="10" stroke-linecap="round" stroke-linejoin="round"/>
<path d="M75.3263 99.9084V117.323C75.3263 117.323 69.6911 125.165 54.7405 127.817C54.7405 127.817 63.7108 133.699 88.3218 133.699C105.572 133.699 120.523 127.817 120.523 127.817C120.523 127.817 101.547 123.781 100.167 117.207V99.9084" fill="#F6F6F4"/>
<path d="M75.3263 99.9084V117.323C75.3263 117.323 69.6911 125.165 54.7405 127.817C54.7405 127.817 63.7108 133.699 88.3218 133.699C105.572 133.699 120.523 127.817 120.523 127.817C120.523 127.817 101.547 123.781 100.167 117.207V99.9084" stroke="#1A1A1A" stroke-width="1.1298" stroke-miterlimit="10" stroke-linecap="round" stroke-linejoin="round"/>
<path d="M62.6758 125.626C62.6758 125.626 85.4467 132.315 112.933 125.626" stroke="#1A1A1A" stroke-width="1.1491" stroke-miterlimit="10"/>
<path d="M75.7864 100.716C75.7864 100.716 80.9616 112.248 91.427 111.556C91.427 111.556 98.9023 111.441 100.627 104.06L99.9373 100.716C99.9373 100.716 90.507 107.405 75.7864 100.716Z" fill="#1A1A1A"/>
<path d="M114.313 55.6232C114.313 55.6232 117.648 103.484 87.7467 103.484C57.9606 103.484 60.2606 55.6232 60.2606 55.6232C60.2606 55.6232 58.8806 27.2529 88.7818 27.2529C116.613 27.2529 114.313 55.6232 114.313 55.6232Z" fill="#F6F6F4" stroke="#1A1A1A" stroke-width="1.1298" stroke-miterlimit="10"/>
<path d="M86.0215 70.1543V74.7673C86.0215 75.1133 86.1365 75.344 86.2515 75.69C86.7115 76.8432 87.9766 77.3045 89.1266 77.0739L90.5067 76.7279" stroke="#1A1A1A" stroke-width="1.0878" stroke-miterlimit="10" stroke-linecap="round" stroke-linejoin="round"/>
<path d="M76.4761 66.9252C77.8735 66.9252 79.0062 65.7893 79.0062 64.388C79.0062 62.9868 77.8735 61.8508 76.4761 61.8508C75.0788 61.8508 73.946 62.9868 73.946 64.388C73.946 65.7893 75.0788 66.9252 76.4761 66.9252Z" fill="#1A1A1A"/>
<path d="M99.5921 66.9252C100.989 66.9252 102.122 65.7893 102.122 64.388C102.122 62.9868 100.989 61.8508 99.5921 61.8508C98.1948 61.8508 97.062 62.9868 97.062 64.388C97.062 65.7893 98.1948 66.9252 99.5921 66.9252Z" fill="#1A1A1A"/>
<path d="M80.9612 67.3865L74.866 71.4229" stroke="#1A1A1A" stroke-width="0.5745" stroke-miterlimit="10" stroke-linecap="round" stroke-linejoin="round"/>
<path d="M95.6819 67.2712L101.087 71.423" stroke="#1A1A1A" stroke-width="0.5745" stroke-miterlimit="10" stroke-linecap="round" stroke-linejoin="round"/>
<path d="M79.6963 82.033C79.6963 82.033 83.3764 84.3395 88.3216 84.3395C93.2668 84.3395 96.947 82.033 96.947 82.033" stroke="#1A1A1A" stroke-width="1.0878" stroke-miterlimit="10" stroke-linecap="round" stroke-linejoin="round"/>
<path d="M82.4564 53.5474C82.3413 53.778 81.7663 56.7765 81.7663 56.7765L68.1958 58.2757L71.4159 55.9692C72.221 55.3926 73.141 55.0466 74.176 54.9313L82.4564 53.5474Z" fill="#1A1A1A"/>
<path d="M92.1167 53.5474C92.2317 53.778 92.8067 56.7765 92.8067 56.7765L106.377 58.2757L103.157 55.9692C102.352 55.3926 101.432 55.0466 100.397 54.9313L92.1167 53.5474Z" fill="#1A1A1A"/>
<path d="M112.243 79.8418C114.313 82.6096 118.108 80.7644 120.408 77.1893C122.708 73.6141 123.743 66.3486 120.408 64.388C117.073 62.4275 114.313 66.4639 114.313 66.4639C114.313 66.4639 113.508 73.8448 112.933 76.4973L112.243 79.8418Z" fill="#F6F6F4" stroke="#1A1A1A" stroke-width="1.1491" stroke-miterlimit="10"/>
<path d="M113.393 73.1529C116.038 67.6172 120.063 68.8858 120.063 68.8858" stroke="#1A1A1A" stroke-width="0.5745" stroke-miterlimit="10" stroke-linecap="round" stroke-linejoin="round"/>
<path d="M115.463 70.385C115.463 70.385 119.488 72.5762 116.843 75.8053" stroke="#1A1A1A" stroke-width="0.5745" stroke-miterlimit="10" stroke-linecap="round" stroke-linejoin="round"/>
<path d="M62.6757 79.8418C60.6056 82.6096 56.8105 80.7644 54.5104 77.1893C52.2103 73.6141 51.1752 66.3486 54.5104 64.388C57.8455 62.4275 60.6056 66.4639 60.6056 66.4639C60.6056 66.4639 61.4106 73.8448 61.9857 76.4973L62.6757 79.8418Z" fill="#F6F6F4" stroke="#1A1A1A" stroke-width="1.1491" stroke-miterlimit="10"/>
<path d="M61.5257 73.1529C58.8806 67.6172 54.8555 68.8858 54.8555 68.8858" stroke="#1A1A1A" stroke-width="0.5745" stroke-miterlimit="10" stroke-linecap="round" stroke-linejoin="round"/>
<path d="M59.4557 70.385C59.4557 70.385 55.4305 72.5762 58.0756 75.8053" stroke="#1A1A1A" stroke-width="0.5745" stroke-miterlimit="10" stroke-linecap="round" stroke-linejoin="round"/>
<path d="M114.313 53.3167C114.198 51.1255 113.968 47.5504 112.933 44.3213C112.703 43.514 112.473 42.7067 112.243 42.0147L113.508 42.3607C112.588 34.7492 95.3369 15.7203 73.6011 26.561C51.8652 37.517 60.1456 66.1179 60.1456 66.1179L60.3756 64.734C61.2956 63.4654 65.0908 57.9298 66.3558 50.7795C81.4214 53.3167 92.9218 44.7826 98.7871 38.9009C99.5921 41.8994 101.892 48.0117 108.332 52.5094C110.288 60.6976 114.313 65.7719 114.313 65.7719C114.658 61.0436 114.543 56.8918 114.313 53.3167Z" fill="#1A1A1A"/>
</g>
<defs>
<clipPath id="clip0">
<rect width="128" height="152" fill="white" transform="translate(24.2644 17.4502)"/>
</clipPath>
</defs>
</svg>

<?xml version="1.0" encoding="utf-8"?>
<!-- Generator: Adobe Illustrator 24.3.0, SVG Export Plug-In . SVG Version: 6.00 Build 0)  -->
<svg version="1.1" id="Layer_1" xmlns="http://www.w3.org/2000/svg" xmlns:xlink="http://www.w3.org/1999/xlink" x="0px" y="0px"
	 viewBox="0 0 175 170" style="enable-background:new 0 0 175 170;" xml:space="preserve">
<style type="text/css">
	.st0{fill:#68E8AA;}
	.st1{clip-path:url(#SVGID_2_);}
	.st2{fill:#1A1A1A;}
	.st3{fill:none;stroke:#1A1A1A;stroke-width:1.1491;stroke-linecap:round;stroke-linejoin:round;stroke-miterlimit:10;}
	.st4{fill:none;stroke:#1A1A1A;stroke-width:1.1298;stroke-linecap:round;stroke-linejoin:round;stroke-miterlimit:10;}
	.st5{fill:none;stroke:#1A1A1A;stroke-width:1.1491;stroke-miterlimit:10;}
	.st6{fill:#68E8AA;stroke:#1A1A1A;stroke-width:1.1298;stroke-miterlimit:10;}
	.st7{fill:none;stroke:#1A1A1A;stroke-width:1.0878;stroke-linecap:round;stroke-linejoin:round;stroke-miterlimit:10;}
	.st8{fill:#68E8AA;stroke:#1A1A1A;stroke-width:1.1491;stroke-miterlimit:10;}
	.st9{fill:none;stroke:#1A1A1A;stroke-width:0.5745;stroke-linecap:round;stroke-linejoin:round;stroke-miterlimit:10;}
</style>
<rect x="0.7" y="0.2" class="st0" width="173.8" height="156.4"/>
<g>
	<defs>
		<rect id="SVGID_1_" x="24.3" y="17.5" width="128" height="152"/>
	</defs>
	<clipPath id="SVGID_2_">
		<use xlink:href="#SVGID_1_"  style="overflow:visible;"/>
	</clipPath>
	<g class="st1">
		<path class="st2" d="M132.6,58.7c-5.4-6.5-9.8-14-13.6-24.4c-3.9-11.3-17-6.7-17-6.7s-10.8-14-27.1-9.1
			C58.5,23.3,52.8,35,52.6,48.9C52.2,62.8,41.4,65,33,81c-14.8,28.3,10.1,52.1,55.4,45.6l0.1-0.5c4.5,1.4,9.9,2,16.6,1.5
			C159.4,124.4,154.1,84.2,132.6,58.7z"/>
		<path class="st2" d="M54.9,127.7c0,0-29.9,15.1-29.9,41.1h61.2h5.5h60c0-25.9-31.1-41.1-31.1-41.1"/>
		<path class="st3" d="M54.9,127.7c0,0-29.9,15.1-29.9,41.1h61.2h5.5h60c0-25.9-31.1-41.1-31.1-41.1"/>
		<path class="st0" d="M75.3,99.9v17.4c0,0-5.6,7.8-20.6,10.5c0,0,9,5.9,33.6,5.9c17.3,0,32.2-5.9,32.2-5.9s-19-4-20.4-10.6V99.9"/>
		<path class="st4" d="M75.3,99.9v17.4c0,0-5.6,7.8-20.6,10.5c0,0,9,5.9,33.6,5.9c17.3,0,32.2-5.9,32.2-5.9s-19-4-20.4-10.6V99.9"/>
		<path class="st5" d="M62.7,125.6c0,0,22.8,6.7,50.3,0"/>
		<path class="st2" d="M75.8,100.7c0,0,5.2,11.5,15.6,10.8c0,0,7.5-0.1,9.2-7.5l-0.7-3.3C99.9,100.7,90.5,107.4,75.8,100.7z"/>
		<path class="st6" d="M114.3,55.6c0,0,3.3,47.9-26.6,47.9c-29.8,0-27.5-47.9-27.5-47.9s-1.4-28.4,28.5-28.4
			C116.6,27.3,114.3,55.6,114.3,55.6z"/>
		<path class="st2" d="M76.5,66.9c1.4,0,2.5-1.1,2.5-2.5c0-1.4-1.1-2.5-2.5-2.5c-1.4,0-2.5,1.1-2.5,2.5
			C73.9,65.8,75.1,66.9,76.5,66.9z"/>
		<path class="st2" d="M99.6,66.9c1.4,0,2.5-1.1,2.5-2.5c0-1.4-1.1-2.5-2.5-2.5c-1.4,0-2.5,1.1-2.5,2.5
			C97.1,65.8,98.2,66.9,99.6,66.9z"/>
		<path class="st7" d="M79.7,82c0,0,3.7,2.3,8.6,2.3s8.6-2.3,8.6-2.3"/>
		<path class="st2" d="M82.5,53.5c-0.1,0.2-0.7,3.2-0.7,3.2l-13.6,1.5l3.2-2.3c0.8-0.6,1.7-0.9,2.8-1L82.5,53.5z"/>
		<path class="st2" d="M92.1,53.5c0.1,0.2,0.7,3.2,0.7,3.2l13.6,1.5l-3.2-2.3c-0.8-0.6-1.7-0.9-2.8-1L92.1,53.5z"/>
		<path class="st8" d="M112.2,79.8c2.1,2.8,5.9,0.9,8.2-2.7c2.3-3.6,3.3-10.8,0-12.8c-3.3-2-6.1,2.1-6.1,2.1s-0.8,7.4-1.4,10
			L112.2,79.8z"/>
		<path class="st9" d="M113.4,73.2c2.6-5.5,6.7-4.3,6.7-4.3"/>
		<path class="st9" d="M115.5,70.4c0,0,4,2.2,1.4,5.4"/>
		<path class="st8" d="M62.7,79.8c-2.1,2.8-5.9,0.9-8.2-2.7c-2.3-3.6-3.3-10.8,0-12.8c3.3-2,6.1,2.1,6.1,2.1s0.8,7.4,1.4,10
			L62.7,79.8z"/>
		<path class="st9" d="M61.5,73.2c-2.6-5.5-6.7-4.3-6.7-4.3"/>
		<path class="st9" d="M59.5,70.4c0,0-4,2.2-1.4,5.4"/>
		<path class="st2" d="M114.3,53.3c-0.1-2.2-0.3-5.8-1.4-9c-0.2-0.8-0.5-1.6-0.7-2.3l1.3,0.3c-0.9-7.6-18.2-26.6-39.9-15.8
			c-21.7,11-13.5,39.6-13.5,39.6l0.2-1.4c0.9-1.3,4.7-6.8,6-14c15.1,2.5,26.6-6,32.4-11.9c0.8,3,3.1,9.1,9.5,13.6
			c2,8.2,6,13.3,6,13.3C114.7,61,114.5,56.9,114.3,53.3z"/>
	</g>
</g>
</svg>
